icons/badge/check/triangle.svg

<svg width="32" height="32" viewBox="0 0 32 32" fill="none" xmlns="http://www.w3.org/2000/svg">
<path fill-rule="evenodd" clip-rule="evenodd" d="M14.2902 3C13.752 3 13.2549 3.28843 12.9879 3.75579L1.28516 24.2356C1.00328 24.7289 1.02429 25.3391 1.33945 25.8118L3.01961 28.3321C3.2978 28.7493 3.76615 29 4.26768 29H27.7325C28.234 29 28.7024 28.7493 28.9806 28.3321L30.6607 25.8118C30.9759 25.3391 30.9969 24.7289 30.715 24.2356L19.0123 3.75579C18.7452 3.28843 18.2482 3 17.7099 3H14.2902ZM3.17496 24.9595L14.5804 5H17.4198L28.8252 24.9595L27.4649 27H4.53527L3.17496 24.9595ZM14.7071 23.7071L21.7071 16.7071L20.2929 15.2929L14 21.5858L10.7071 18.2929L9.29286 19.7071L13.2929 23.7071L14 24.4142L14.7071 23.7071Z" fill="black"/>
</svg>

<svg viewBox="0 0 32 32" xmlns="http://www.w3.org/2000/svg"><path fill-rule="evenodd" d="M14.29 3a1.5 1.5 0 00-1.302.756L1.285 24.236a1.5 1.5 0 00.054 1.576l1.68 2.52A1.5 1.5 0 004.269 29h23.465a1.5 1.5 0 001.248-.668l1.68-2.52a1.5 1.5 0 00.054-1.576L19.012 3.756A1.5 1.5 0 0017.71 3h-3.42zM3.175 24.96L14.58 5h2.84l11.405 19.96-1.36 2.04H4.535l-1.36-2.04zm11.532-1.253l7-7-1.414-1.414L14 21.586l-3.293-3.293-1.414 1.414 4 4 .707.707.707-.707z"/></svg>
